X: 1
T: When The Cock Crows It Is Day
R: jig
M: 6/8
L: 1/8
K: Gmaj
D|GAB AGE|{e}c2 B c2 D|GAB AGE|{B}A2 G A2 D|
GAB AGE|c2 d (3efg e|dBG AGE|1 G3 G2:|2 G3 GBd||
g2 e dBG|c4 z d|(3efg e dBG|A3 ABd|
g2 e dBG|c2 d (3efg e|dBG AGE|1 G3 GBd:|2G3 G2D|


Tune 2483	Setting 15789

